icon/pk/printer-one.svg

<svg viewBox="0 0 48 48" fill="none" xmlns="http://www.w3.org/2000/svg" height="1em" width="1em">
  <path d="M32 33H42C43.1046 33 44 32.1046 44 31V15C44 13.8954 43.1046 13 42 13H32" stroke="black" stroke-width="4" stroke-linecap="round" stroke-linejoin="round"/>
  <path d="M16 33H6C4.89543 33 4 32.1046 4 31V15C4 13.8954 4.89543 13 6 13H16" stroke="black" stroke-width="4" stroke-linecap="round" stroke-linejoin="round"/>
  <path d="M12 13V19H36V13" stroke="black" stroke-width="4" stroke-linecap="round" stroke-linejoin="round"/>
  <path d="M16 13V5H32V13" stroke="black" stroke-width="4" stroke-linecap="round" stroke-linejoin="round"/>
  <path d="M16 29V43H32V29" stroke="black" stroke-width="4" stroke-linecap="round" stroke-linejoin="round"/>
  <path d="M22 35H26" stroke="black" stroke-width="4" stroke-linecap="round" stroke-linejoin="round"/>
  <line x1="13" y1="27" x2="35" y2="27" stroke="black" stroke-width="4" stroke-linecap="round" stroke-linejoin="round"/>
</svg>

<svg width="48" height="48" fill="none" xmlns="http://www.w3.org/2000/svg"><path d="M32 33h10a2 2 0 0 0 2-2V15a2 2 0 0 0-2-2H32M16 33H6a2 2 0 0 1-2-2V15a2 2 0 0 1 2-2h10" stroke="#000" stroke-width="4" stroke-linecap="round" stroke-linejoin="round"/><path d="M12 13v6h24v-6M16 13V5h16v8M16 29v14h16V29M22 35h4M13 27h22" stroke="#000" stroke-width="4" stroke-linecap="round" stroke-linejoin="round"/></svg>
